pldoc/static/images/icons/list-ul.svg

<?xml version="1.0" encoding="utf-8"?>
<!-- Generated by IcoMoon.io -->
<!DOCTYPE svg PUBLIC "-//W3C//DTD SVG 1.1//EN" "http://www.w3.org/Graphics/SVG/1.1/DTD/svg11.dtd">
<svg version="1.1" xmlns="http://www.w3.org/2000/svg" xmlns:xlink="http://www.w3.org/1999/xlink" width="14" height="14" viewBox="0 0 14 14">
<path fill="#444444" d="M3 11q0 0.625-0.438 1.062t-1.062 0.438-1.062-0.438-0.438-1.062 0.438-1.062 1.062-0.438 1.062 0.438 0.438 1.062zM3 7q0 0.625-0.438 1.062t-1.062 0.438-1.062-0.438-0.438-1.062 0.438-1.062 1.062-0.438 1.062 0.438 0.438 1.062zM14 10.25v1.5q0 0.102-0.074 0.176t-0.176 0.074h-9.5q-0.102 0-0.176-0.074t-0.074-0.176v-1.5q0-0.102 0.074-0.176t0.176-0.074h9.5q0.102 0 0.176 0.074t0.074 0.176zM3 3q0 0.625-0.438 1.062t-1.062 0.438-1.062-0.438-0.438-1.062 0.438-1.062 1.062-0.438 1.062 0.438 0.438 1.062zM14 6.25v1.5q0 0.102-0.074 0.176t-0.176 0.074h-9.5q-0.102 0-0.176-0.074t-0.074-0.176v-1.5q0-0.102 0.074-0.176t0.176-0.074h9.5q0.102 0 0.176 0.074t0.074 0.176zM14 2.25v1.5q0 0.102-0.074 0.176t-0.176 0.074h-9.5q-0.102 0-0.176-0.074t-0.074-0.176v-1.5q0-0.102 0.074-0.176t0.176-0.074h9.5q0.102 0 0.176 0.074t0.074 0.176z"></path>
</svg>

<svg xmlns="http://www.w3.org/2000/svg" width="14" height="14" viewBox="0 0 14 14"><path fill="#444" d="M3 11q0 .625-.438 1.062T1.5 12.5t-1.062-.438T0 11t.438-1.062T1.5 9.5t1.062.438T3 11zm0-4q0 .625-.438 1.062T1.5 8.5.438 8.062 0 7t.438-1.062T1.5 5.5t1.062.438T3 7zm11 3.25v1.5q0 .102-.074.176T13.75 12h-9.5q-.102 0-.176-.074T4 11.75v-1.5q0-.102.074-.176T4.25 10h9.5q.102 0 .176.074t.074.176zM3 3q0 .625-.438 1.062T1.5 4.5.438 4.062 0 3t.438-1.062T1.5 1.5t1.062.438T3 3zm11 3.25v1.5q0 .102-.074.176T13.75 8h-9.5q-.102 0-.176-.074T4 7.75v-1.5q0-.102.074-.176T4.25 6h9.5q.102 0 .176.074T14 6.25zm0-4v1.5q0 .102-.074.176T13.75 4h-9.5q-.102 0-.176-.074T4 3.75v-1.5q0-.102.074-.176T4.25 2h9.5q.102 0 .176.074T14 2.25z"/></svg>
